packages/foundations/assets/icons/functional/images/medical/mask_12.svg

<svg width="12" height="12" viewBox="0 0 12 12" fill="none" xmlns="http://www.w3.org/2000/svg">
<g clip-path="url(#clip0_232_321)">
<path fill-rule="evenodd" clip-rule="evenodd" d="M2.44274 7.20407C3.17677 6.7335 4.66367 6.26294 5.99999 6.26294C7.6751 6.26294 8.89849 6.80879 9.63253 7.20407H10.1977C10.5177 7.20407 10.8 7.46751 10.8 7.80635C10.8 8.14508 10.5177 8.40864 10.1977 8.40864H9.72663C9.10553 9.87665 7.61863 10.8366 5.99999 10.7989C4.38135 10.7801 2.89445 9.87665 2.27334 8.40864H1.80224C1.46345 8.40864 1.19995 8.14508 1.19995 7.80635C1.19995 7.46751 1.46345 7.20407 1.80224 7.20407H2.44274ZM1.84045 5.20894C1.84045 2.98807 3.72259 1.2 6.03763 1.2C8.35267 1.2 10.2348 2.98807 10.2348 5.20894C10.2348 5.54778 9.97131 5.81122 9.63253 5.81122C9.29374 5.81122 9.03024 5.54778 9.03024 5.20894C9.03024 3.66564 7.69392 2.42336 6.03763 2.42336C4.40017 2.42336 3.06384 3.66564 3.06384 5.20894C3.06384 5.54778 2.78152 5.81122 2.44274 5.81122C2.12277 5.81122 1.84045 5.54778 1.84045 5.20894ZM3.45909 8.08865C3.94845 9.04851 4.92717 9.59436 5.99999 9.61321C7.07281 9.632 8.05152 9.06736 8.54088 8.1075C7.73156 7.69337 6.86577 7.48636 5.99999 7.46751C5.1342 7.48636 4.30606 7.73107 3.45909 8.08865Z" fill="#1A1C1F"/>
</g>
<defs>
<clipPath id="clip0_232_321">
<rect width="12" height="12" fill="white"/>
</clipPath>
</defs>
</svg>

<svg xmlns="http://www.w3.org/2000/svg" width="12" height="12" fill="none"><g clip-path="url(#a)"><path fill="#1A1C1F" fill-rule="evenodd" d="M2.443 7.204c.734-.47 2.22-.941 3.557-.941 1.675 0 2.898.546 3.633.941h.565c.32 0 .602.264.602.602a.606.606 0 0 1-.602.603h-.471A3.96 3.96 0 0 1 6 10.799c-1.619-.019-3.106-.922-3.727-2.39h-.47a.595.595 0 0 1-.603-.603c0-.338.263-.602.602-.602zM1.84 5.21c0-2.22 1.883-4.009 4.198-4.009s4.197 1.788 4.197 4.009a.595.595 0 0 1-.602.602.595.595 0 0 1-.603-.602c0-1.543-1.336-2.786-2.992-2.786-1.638 0-2.974 1.243-2.974 2.786a.61.61 0 0 1-.621.602.606.606 0 0 1-.603-.602m1.62 2.88c.488.96 1.467 1.505 2.54 1.524s2.052-.546 2.54-1.505A5.8 5.8 0 0 0 6 7.468c-.866.018-1.694.263-2.54.62" clip-rule="evenodd"/></g><defs><clipPath id="a"><path fill="#fff" d="M0 0h12v12H0z"/></clipPath></defs></svg>
